src/2-landmarks/bus--door-drop.svg

<svg width="1300" height="1000" fill="none" xmlns="http://www.w3.org/2000/svg"><path fill-rule="evenodd" clip-rule="evenodd" d="M539 860v40H0v100h1300V900h-153.48c29.7-13.362 49.6-44.285 46.98-79.03l-48.91-647c-3.15-41.725-37.93-73.97-79.77-73.97H0v7h1062.55c39.19 0 71.77 30.173 74.78 69.248l1.82 23.752H927c-11.046 0-20 8.954-20 20v164.026c-5.489-14.376-10.374-26.555-14-34.513-2.506-5.5-8.5-9.428-14.5-9.5-41.5-.5-54 13.5-72.5 46.999-17.528 36.034-30.715 83.36-31 84.998-8 45.999-17 103.498-17 103.498l-9.424 23.807c-4.675 11.81 3.731 24.694 16.423 25.173a.925.925 0 0 0 .789-.392l33.712-48.088-31 167.996L752.728 773H586V207h249c8.284 0 15 6.716 15 15v31.608c-3.593 1.843-6.107 3.821-9.251 7.257-3.743 4.091-5.453 6.947-7.238 12.161-1.737 5.076-2.187 8.269-1.74 13.601.188 2.242.985 5.678.985 5.678l6.183 23.705c.287 1.102.633 2.185 1.087 3.228 1.109 2.543 3.504 7.554 6.247 10.348 4.054 4.129 7.255 5.886 12.864 7.482 4.976 1.417 13.251.762 13.251.762 1.835-.165 8.802-1.278 12.434-3.009 4.345-2.07 8.287-5.681 10.881-9.598 1.871-2.826 3.555-8.377 4.348-11.251.334-1.209.551-2.445.694-3.691l2.768-24.167c.13-1.801.141-3.965-.016-5.762-.419-4.765-1.691-8.901-4.075-13.093-2.385-4.191-5.288-7.801-9.24-10.719-3.952-2.918-9.017-5.282-13.877-6.44-4.847-1.048-6.715-1.197-11.673-.931-3.07.294-5.259.692-7.632 1.47V220c0-11.046-8.954-20-20-20H559c-11.046 0-20 8.954-20 20v633H0v7h539Zm209.92-80H586v33h144.97l17.95-33Zm-21.758 40H586v33h123.212l17.95-33Zm-21.431 40H586v40h144l-32-17.999 10.5-15a6.833 6.833 0 0 1-2.769-7.001Zm86.769 40H850v-40h-67.151L774 876.001l8.372 4.751a20 20 0 0 1 10.128 17.394V900Zm-5.78-47H850v-33h-45.029l-18.251 33ZM800 813.993 763.5 879.5l14.627 7.501a10 10 0 0 1 5.392 7.95L784 900l-38-1-36-20.5 9.758-12.963a7.178 7.178 0 0 1-2.575-9.498L777 744l18.5-106.75L817 523.5s-5.5 44 44 123.5c2.802 4.5-22 97-22 97l-38.446 69H800v.993Zm8.842-.993H850v-33h-22.907l-18.251 33Zm22.122-40H850v-41.549l-3 12.553L830.964 773ZM857 702.163V853h31.474c3.057-18.993 10.746-36.437 21.871-51.136l-5.845-57.86-38.5-79.498-9 37.657Zm54.42 110.35C900.4 829.493 894 849.749 894 871.5c0 9.863 1.316 19.418 3.782 28.5H927l-1.5-7.5a6.636 6.636 0 0 1-6.603-5.969l-7.477-74.018ZM961 900h87.2c6.18-8.949 9.8-19.802 9.8-31.5 0-30.652-24.85-55.5-55.5-55.5-4.665 0-9.195.576-13.524 1.659L992 857.001l17.55 2.257c9.98 1.282 17.45 9.777 17.45 19.836v1.907L961 900Zm27.47-92.419A62.721 62.721 0 0 1 1002.5 806c34.52 0 62.5 27.982 62.5 62.5 0 11.487-3.1 22.251-8.51 31.5h50.73a108.874 108.874 0 0 0 3.78-28.5c0-59.923-48.58-108.5-108.5-108.5-5.825 0-11.542.459-17.119 1.343l3.089 43.238Zm-3.589-50.246A116.422 116.422 0 0 1 1002.5 756c57.49 0 105.17 42.005 114.03 97h65.08c4.18-10.349 6.1-21.811 5.18-33.752L1180.38 736H1140c-22.09 0-40-17.909-40-40s17.91-40 40-40h34.23l-9.69-126H959.141l.859 2.509 14.111 14.317c10.929 11.09 10.645 28.985-.63 39.723a.836.836 0 0 1-1.036.093l-42.392-27.94a5.016 5.016 0 0 1-1.651-1.804l-9.902-18.39 3.5 22 60 156.496 2.881 40.331ZM956.736 523H1164l-24.31-316H929c-8.284 0-15 6.716-15 15v180.649c16.335 44.041 35.271 98.669 42.736 120.351ZM579 900V207h-18c-8.284 0-15 6.716-15 15v678h33Zm278 0h33.543A115.702 115.702 0 0 1 887 871.5c0-3.881.191-7.717.565-11.5H857v40Zm260.43-40h60.93c-12.17 23.007-36.01 39.066-63.89 39.961 2.3-9.104 3.53-18.64 3.53-28.461 0-3.881-.19-7.717-.57-11.5Zm57.34-197H1140c-18.23 0-33 14.775-33 33s14.77 33 33 33h39.85l-5.08-66ZM871.778 330.857c1.479-.133 7.089-1.049 10.01-2.495 3.494-1.73 6.66-4.759 8.737-8.05 1.454-2.304 2.758-6.77 3.41-9.242.307-1.166.502-2.355.629-3.555l2.129-20.124c.099-1.517.101-3.34-.031-4.854-.353-4.016-1.392-7.504-3.327-11.043-1.935-3.538-4.286-6.589-7.48-9.06-3.194-2.471-7.284-4.478-11.204-5.47-3.909-.898-5.414-1.03-9.409-.822-3.709.357-5.82.918-9.227 2.453-4.388 1.976-6.779 3.662-9.981 7.323-3.003 3.434-4.372 5.835-5.793 10.221-1.384 4.271-1.736 6.959-1.359 11.453.159 1.889.813 4.786.813 4.786l5.009 19.794c.268 1.059.589 2.101 1.016 3.107.933 2.198 2.831 6.254 4.987 8.549 3.28 3.491 5.865 4.982 10.39 6.344 4.015 1.209 10.681.685 10.681.685Zm136.162 534.417-23.44-1.804L974 716.889l-60-157.087C899.433 412.238 887.621 366.8 881.517 352.84c-2.08-4.758-7.201-6.842-12.393-6.84-12.272.005-36.29 4.386-53.125 35.217C797.321 415.423 782 471.752 782 471.752l-17 104.559-10.365 26.618c-2.229 5.726 1.995 11.904 8.14 11.904a.437.437 0 0 0 .356-.183l27.369-38.339 20.5-59.534 35.645-98.078a1.484 1.484 0 0 1 2.821.91l-27.164 96.099a6.795 6.795 0 0 0-.269 2.149c.312 7.767 3.556 56.355 36.467 109.982 1.5 2.444 54.5 115.564 54.5 115.564l12.876 135.033a8.447 8.447 0 0 0 7.124 7.547L935.5 899l81.67-23.703v-.237c-.1-5.154-4.09-9.39-9.23-9.786ZM915 517c-4-82.5-27-166-27-166l43 117 22.5 66.485 19.034 22.783c4.975 5.955 4.255 14.8-1.618 19.873a.71.71 0 0 1-.868.046l-34.098-23.565S915.17 520.507 915 517Z" fill="#000"/><path fill-rule="evenodd" clip-rule="evenodd" d="M0 530v-7h212V207H0v-7h469c11.046 0 20 8.954 20 20v290c0 11.046-8.954 20-20 20H0Zm467-7H219V207h248c8.284 0 15 6.716 15 15v286c0 8.284-6.716 15-15 15Z" fill="#000"/></svg>

<svg width="1300" height="1000" viewBox="0 0 1300 1000" fill="none" xmlns="http://www.w3.org/2000/svg">
<path fill-rule="evenodd" clip-rule="evenodd" d="M539 860V900H0V1000H1300V900H1146.52C1176.22 886.638 1196.12 855.715 1193.5 820.97L1144.59 173.97C1141.44 132.245 1106.66 100 1064.82 100H0V107H1062.55C1101.74 107 1134.32 137.173 1137.33 176.248L1139.15 200H927C915.954 200 907 208.954 907 220V384.026C901.511 369.65 896.626 357.471 893 349.513C890.494 344.013 884.5 340.085 878.5 340.013C837 339.513 824.5 353.513 806 387.012C788.472 423.046 775.285 470.372 775 472.01C767 518.009 758 575.508 758 575.508L748.576 599.315C743.901 611.125 752.307 624.009 764.999 624.488C765.311 624.499 765.608 624.352 765.788 624.096L799.5 576.008L768.5 744.004L752.728 773H586V207H835C843.284 207 850 213.716 850 222V253.608C846.407 255.451 843.893 257.429 840.749 260.865C837.006 264.956 835.296 267.812 833.511 273.026C831.774 278.102 831.324 281.295 831.771 286.627C831.959 288.869 832.756 292.305 832.756 292.305L838.939 316.01C839.226 317.112 839.572 318.195 840.026 319.238C841.135 321.781 843.53 326.792 846.273 329.586C850.327 333.715 853.528 335.472 859.137 337.068C864.113 338.485 872.388 337.83 872.388 337.83C874.223 337.665 881.19 336.552 884.822 334.821C889.167 332.751 893.109 329.14 895.703 325.223C897.574 322.397 899.258 316.846 900.051 313.972C900.385 312.763 900.602 311.527 900.745 310.281L903.513 286.114C903.643 284.313 903.654 282.149 903.497 280.352C903.078 275.587 901.806 271.451 899.422 267.259C897.037 263.068 894.134 259.458 890.182 256.54C886.23 253.622 881.165 251.258 876.305 250.1C871.458 249.052 869.59 248.903 864.632 249.169C861.562 249.463 859.373 249.861 857 250.639V220C857 208.954 848.046 200 837 200H559C547.954 200 539 208.954 539 220V853H0V860H539ZM748.92 780H586V813H730.97L748.92 780ZM727.162 820H586V853H709.212L727.162 820ZM705.731 860H586V900H730L698 882.001L708.5 867.001C706.209 865.397 705.181 862.616 705.731 860ZM792.5 900H850V860H782.849L774 876.001L782.372 880.752C788.632 884.305 792.5 890.948 792.5 898.146V900ZM786.72 853H850V820H804.971L786.72 853ZM800 813.993L763.5 879.5L778.127 887.001C781.163 888.558 783.196 891.555 783.519 894.951L784 900L746 899L710 878.5L719.758 865.537C716.523 863.55 715.395 859.388 717.183 856.039L777 744L795.5 637.25L817 523.5C817 523.5 811.5 567.5 861 647C863.802 651.5 839 744 839 744L800.554 813H800V813.993ZM808.842 813H850V780H827.093L808.842 813ZM830.964 773H850V731.451L847 744.004L830.964 773ZM857 702.163V853H888.474C891.531 834.007 899.22 816.563 910.345 801.864L904.5 744.004L866 664.506L857 702.163ZM911.42 812.513C900.4 829.493 894 849.749 894 871.5C894 881.363 895.316 890.918 897.782 900H927L925.5 892.5C922.093 892.5 919.239 889.921 918.897 886.531L911.42 812.513ZM961 900H1048.2C1054.38 891.051 1058 880.198 1058 868.5C1058 837.848 1033.15 813 1002.5 813C997.835 813 993.305 813.576 988.976 814.659L992 857.001L1009.55 859.258C1019.53 860.54 1027 869.035 1027 879.094V881.001L961 900ZM988.47 807.581C992.98 806.547 997.676 806 1002.5 806C1037.02 806 1065 833.982 1065 868.5C1065 879.987 1061.9 890.751 1056.49 900H1107.22C1109.68 890.918 1111 881.363 1111 871.5C1111 811.577 1062.42 763 1002.5 763C996.675 763 990.958 763.459 985.381 764.343L988.47 807.581ZM984.881 757.335C990.625 756.456 996.509 756 1002.5 756C1059.99 756 1107.67 798.005 1116.53 853H1181.61C1185.79 842.651 1187.71 831.189 1186.79 819.248L1180.38 736H1140C1117.91 736 1100 718.091 1100 696C1100 673.909 1117.91 656 1140 656H1174.23L1164.54 530H959.141C959.701 531.633 960 532.509 960 532.509L974.111 546.826C985.04 557.916 984.756 575.811 973.481 586.549C973.2 586.817 972.77 586.856 972.445 586.642L930.053 558.702C929.362 558.246 928.795 557.626 928.402 556.898L918.5 538.508L922 560.508L982 717.004L984.881 757.335ZM956.736 523H1164L1139.69 207H929C920.716 207 914 213.716 914 222V402.649C930.335 446.69 949.271 501.318 956.736 523ZM579 900V207H561C552.716 207 546 213.716 546 222V900H579ZM857 900H890.543C888.229 890.884 887 881.336 887 871.5C887 867.619 887.191 863.783 887.565 860H857V900ZM1117.43 860H1178.36C1166.19 883.007 1142.35 899.066 1114.47 899.961C1116.77 890.857 1118 881.321 1118 871.5C1118 867.619 1117.81 863.783 1117.43 860ZM1174.77 663H1140C1121.77 663 1107 677.775 1107 696C1107 714.225 1121.77 729 1140 729H1179.85L1174.77 663ZM871.778 330.857C873.257 330.724 878.867 329.808 881.788 328.362C885.282 326.632 888.448 323.603 890.525 320.312C891.979 318.008 893.283 313.542 893.935 311.07C894.242 309.904 894.437 308.715 894.564 307.515L896.693 287.391C896.792 285.874 896.794 284.051 896.662 282.537C896.309 278.521 895.27 275.033 893.335 271.494C891.4 267.956 889.049 264.905 885.855 262.434C882.661 259.963 878.571 257.956 874.651 256.964C870.742 256.066 869.237 255.934 865.242 256.142C861.533 256.499 859.422 257.06 856.015 258.595C851.627 260.571 849.236 262.257 846.034 265.918C843.031 269.352 841.662 271.753 840.241 276.139C838.857 280.41 838.505 283.098 838.882 287.592C839.041 289.481 839.695 292.378 839.695 292.378L844.704 312.172C844.972 313.231 845.293 314.273 845.72 315.279C846.653 317.477 848.551 321.533 850.707 323.828C853.987 327.319 856.572 328.81 861.097 330.172C865.112 331.381 871.778 330.857 871.778 330.857ZM1007.94 865.274L984.5 863.47L974 716.889L914 559.802C899.433 412.238 887.621 366.8 881.517 352.84C879.437 348.082 874.316 345.998 869.124 346C856.852 346.005 832.834 350.386 815.999 381.217C797.321 415.423 782 471.752 782 471.752L765 576.311L754.635 602.929C752.406 608.655 756.63 614.833 762.775 614.833C762.916 614.833 763.049 614.765 763.131 614.65L790.5 576.311L811 516.777L846.645 418.699C846.858 418.113 847.415 417.722 848.039 417.722C849.022 417.722 849.733 418.662 849.466 419.609L822.302 515.708C822.102 516.417 822.003 517.121 822.033 517.857C822.345 525.624 825.589 574.212 858.5 627.839C860 630.283 913 743.403 913 743.403L925.876 878.436C926.243 882.286 929.178 885.395 933 885.983L935.5 899L1017.17 875.297L1017.17 875.06C1017.07 869.906 1013.08 865.67 1007.94 865.274ZM915 517C911 434.5 888 351 888 351L931 468L953.5 534.485L972.534 557.268C977.509 563.223 976.789 572.068 970.916 577.141C970.671 577.352 970.314 577.371 970.048 577.187L935.95 553.622C935.95 553.622 915.17 520.507 915 517Z" fill="black"/>
<path fill-rule="evenodd" clip-rule="evenodd" d="M0 530V523H212V207H0V200H469C480.046 200 489 208.954 489 220V510C489 521.046 480.046 530 469 530H0ZM467 523H219V207H467C475.284 207 482 213.716 482 222V508C482 516.284 475.284 523 467 523Z" fill="black"/>
</svg>
